icons/evolvere-blue-folders-flat-vivid-dark-fallback/apps/64/btsync.svg

<svg xmlns="http://www.w3.org/2000/svg" viewBox="0 0 64 64"><g color="#000"><path d="m0 4v30 28l2 2h30 30l2-2v-28-30h-32-32" fill="#2b71d6"/><path d="m2 0l-2 1v3h32 32v-3l-2-1h-30-30" fill="#62b7ff"/></g><path d="m0 3v3l2-2" fill="#7ac2ff"/><path d="m64 6l-2-2 2-1z" fill="#4490e8"/><path d="m31.874 11.965c-7.56.054-14.897 3.999-18.949 11.01a0 0 0 0 0 0 0c-.701 1.228-1.29 2.586-1.749 3.964a1.047111 1.047111 0 1 0 1.981333 .662068c.418-1.257.962-2.499 1.581-3.585 5.519-9.54 17.696-12.797 27.24-7.282 5.622 3.249 9.255 8.993 9.868 15.348l-3.55-3.756a1.047111 1.047111 0 1 0 -1.521437 1.433524l5.435 5.756a1.047111 1.047111 0 0 0 1.807512 -.680108c.31-8.16-3.921-15.829-10.991-19.915-3.289-1.901-6.871-2.855-10.423-2.948-.243 0-.489 0-.733 0zm-20.825906 20.19248a1.047111 1.047111 0 0 0 -1.066123 1.00713c-.31 8.16 3.927 15.829 10.997 19.915 10.526 6.083 24.02 2.472 30.1-8.05a0 0 0 0 0 0 0c.701-1.228 1.29-2.586 1.749-3.964a1.048744 1.048744 0 1 0 -1.987347 -.668081c-.419 1.258-.962 2.505-1.581 3.591-5.518 9.542-17.693 12.797-27.24 7.282-5.622-3.249-9.261-8.993-9.874-15.348l3.55 3.756a1.047111 1.047111 0 1 0 1.521438 -1.43381l-5.435-5.756a1.047111 1.047111 0 0 0 -.74139 -.326738z" color="#000" fill="#cbe8ff"/></svg>

<?xml version="1.0" encoding="UTF-8" standalone="no"?>
<!-- Created with Inkscape (http://www.inkscape.org/) -->

<svg
   xmlns:dc="http://purl.org/dc/elements/1.1/"
   xmlns:cc="http://creativecommons.org/ns#"
   xmlns:rdf="http://www.w3.org/1999/02/22-rdf-syntax-ns#"
   xmlns:svg="http://www.w3.org/2000/svg"
   xmlns="http://www.w3.org/2000/svg"
   xmlns:sodipodi="http://sodipodi.sourceforge.net/DTD/sodipodi-0.dtd"
   xmlns:inkscape="http://www.inkscape.org/namespaces/inkscape"
   width="64"
   height="64"
   id="svg13094"
   version="1.1"
   inkscape:version="0.91+devel r"
   sodipodi:docname="btsync.svg">
  <sodipodi:namedview
     id="base"
     pagecolor="#ffffff"
     bordercolor="#666666"
     borderopacity="1.0"
     inkscape:pageopacity="0"
     inkscape:pageshadow="2"
     inkscape:zoom="11.313709"
     inkscape:cx="16.719812"
     inkscape:cy="34.317907"
     inkscape:document-units="px"
     inkscape:current-layer="svg13094"
     showgrid="true"
     inkscape:snap-bbox="true"
     inkscape:bbox-paths="true"
     inkscape:bbox-nodes="true"
     inkscape:snap-bbox-edge-midpoints="true"
     inkscape:snap-bbox-midpoints="true"
     inkscape:object-paths="true"
     inkscape:snap-intersection-paths="true"
     inkscape:object-nodes="true"
     inkscape:snap-smooth-nodes="true"
     inkscape:snap-midpoints="true"
     inkscape:snap-object-midpoints="true"
     inkscape:snap-center="true"
     showguides="true"
     inkscape:guide-bbox="true"
     inkscape:window-width="1920"
     inkscape:window-height="1023"
     inkscape:window-x="-10"
     inkscape:window-y="35"
     inkscape:window-maximized="1"
     inkscape:snap-global="true"
     fit-margin-top="0"
     fit-margin-left="0"
     fit-margin-right="0"
     fit-margin-bottom="0"
     showborder="true"
     inkscape:showpageshadow="false"
     inkscape:snap-page="true">
    <inkscape:grid
       type="xygrid"
       id="grid3075"
       empspacing="5"
       visible="true"
       enabled="true"
       snapvisiblegridlinesonly="true"
       originx="1.6362304e-08px"
       originy="18px" />
  </sodipodi:namedview>
  <defs
     id="defs13096" />
  <metadata
     id="metadata13099">
    <rdf:RDF>
      <cc:Work
         rdf:about="">
        <dc:format>image/svg+xml</dc:format>
        <dc:type
           rdf:resource="http://purl.org/dc/dcmitype/StillImage" />
        <dc:title></dc:title>
      </cc:Work>
    </rdf:RDF>
  </metadata>
  <path
     inkscape:connector-curvature="0"
     style="color:#000000;fill:#2b71d6;fill-opacity:1;fill-rule:nonzero;stroke:none;stroke-width:2.28571415;marker:none;visibility:visible;display:inline;overflow:visible;enable-background:accumulate"
     d="m 0,4 0,30 0,28 2,2 30,0 30,0 2,-2 L 64,34 64,4 32,4 0,4 z"
     id="path3780" />
  <path
     style="color:#000000;fill:#62b7ff;fill-opacity:1;fill-rule:nonzero;stroke:none;marker:none;visibility:visible;display:inline;overflow:visible;enable-background:accumulate;stroke-width:2.28571415"
     d="M 2 0 L 0 1 L 0 4 L 32 4 L 64 4 L 64 1 L 62 0 L 32 0 L 2 0 z "
     id="path6502" />
  <path
     style="fill:#7ac2ff;fill-opacity:1;fill-rule:nonzero"
     d="M 0,3 0,6 2,4 Z"
     id="path4298"
     inkscape:connector-curvature="0"
     sodipodi:nodetypes="cccc" />
  <path
     d="M 64,6 62,4 64,3 z"
     id="path3028"
     style="fill:#4490e8;fill-opacity:1"
     inkscape:connector-curvature="0" />
  <g
     id="g3043"
     inkscape:export-filename="folder.png"
     inkscape:export-xdpi="90"
     inkscape:export-ydpi="90"
     transform="translate(-0.62500009,0.082283)" />
  <g
     id="scalable"
     transform="matrix(1.0385892,0,0,1.0385892,1214.7222,1878.8121)"
     inkscape:label="#g3701"
     style="fill:#ffffff" />
  <path
     style="font-size:medium;font-style:normal;font-variant:normal;font-weight:normal;font-stretch:normal;text-indent:0;text-align:start;text-decoration:none;line-height:normal;letter-spacing:normal;word-spacing:normal;text-transform:none;direction:ltr;block-progression:tb;writing-mode:lr-tb;text-anchor:start;baseline-shift:baseline;color:#000000;fill:#cbe8ff;fill-opacity:1;stroke:none;stroke-width:11.18761826;marker:none;visibility:visible;display:inline;overflow:visible;enable-background:accumulate;font-family:Sans;-inkscape-font-specification:Sans"
     d="m 31.874422,11.96535 c -7.559936,0.05441 -14.897083,3.999034 -18.948808,11.009157 a 0,0 0 0 0 0,0 c -0.700726,1.228489 -1.289771,2.586414 -1.748522,3.964384 a 1.0471105,1.0471105 0 1 0 1.981333,0.662068 c 0.418374,-1.257126 0.962174,-2.498788 1.581001,-3.58467 0.002,-0.0023 0.0029,0 0,0 5.518753,-9.540124 17.695978,-12.797197 27.239252,-7.281593 5.621843,3.249054 9.255194,8.992887 9.867721,15.347816 l -3.55002,-3.7562 a 1.0471105,1.0471105 0 1 0 -1.521437,1.433524 l 5.435136,5.756147 A 1.0471105,1.0471105 0 0 0 54.01759,34.835875 C 54.327433,26.675439 50.096732,19.006972 43.02676,14.92117 39.737615,13.020018 36.156095,12.066149 32.603498,11.973368 c -0.243407,0 -0.489392,0 -0.733371,0 z M 11.048516,32.157825 a 1.0471105,1.0471105 0 0 0 -1.0661228,1.007132 c -0.3098429,8.160149 3.9268718,15.828617 10.9968438,19.914705 10.525779,6.083171 24.01597,2.471583 30.099141,-8.05391 a 0,0 0 0 0 0,0 c 0.701012,-1.228489 1.289771,-2.586414 1.748522,-3.964384 a 1.0487438,1.0487438 0 1 0 -1.987347,-0.668081 c -0.41866,1.257985 -0.961887,2.504515 -1.581,3.59097 l 0,0 C 43.740658,53.526672 31.565438,56.78174 22.021305,51.26585 16.399462,48.016509 12.760097,42.272962 12.14757,35.918034 l 3.55002,3.756486 a 1.0471105,1.0471105 0 1 0 1.521438,-1.43381 l -5.435136,-5.756147 a 1.0471105,1.0471105 0 0 0 -0.74139,-0.326738 z"
     id="path3863"
     inkscape:connector-curvature="0" />
</svg>
